X:30
T: Dillon's Breakfast
C:  B. Black
R: reel
M: 4/4
L: 1/8
K: D
A | dBAF GBdB | ceeg fddc | BAFB A2 de |\
fagf d3 e |
fa a2 eAcA | BcdB ADFD | =cGGc dcAG |\
FAGE D3 :|
A | =cBcd edcd | eA^cA eAcA | =c2 ec gcec |\
efdc d3 A |
=cG G2 BF F2 | ABdF ED D2 | =CE E2 GE E2 |\
FAGE D3 :|
